
( YUZEY TARAMA )
O 1001
G17 G21 G90 G54
G40 G49 G80
( G-Code generated by ait-cnc-cli )
( 04.04.2022 10:31:56 )
( pass_count: 1 )
( surface_speed: 628.3185307179587 )
( tool_diameter: 50 )
( Z_CLEARANCE: 51.7 )
T3 M6
G43 H3 Z51.7
S4000 M03
M8
G0 X-51.0 Y-24.0 
G1 Z20.1 F1000
G1 X167 F1000
G0 Z51.7
G0 X-51.0 Y-24.0 
G1 Z18.5 F1000
G1 X167 F1000
G0 Z51.7
G0 X-51.0 Y-24.0 
G1 Z16.9 F1000
G1 X167 F1000
G0 Z51.7
G0 X-51.0 Y-24.0 
G1 Z15.3 F1000
G1 X167 F1000
G0 Z51.7
G0 X-51.0 Y-24.0 
G1 Z13.7 F1000
G1 X167 F1000
G0 Z51.7
G0 X-51.0 Y-24.0 
G1 Z12.1 F1000
G1 X167 F1000
G0 Z51.7
( Z Pass: 13.5 )
G0 X-51.0 Y-24.0 
G1 Z13.5 F1000
G1 X167 F1000
G0 Z51.7
M9
G91
G0 Y100 Z100
G90
M05
M9
M30
